icons/gradle.svg

<svg xmlns="http://www.w3.org/2000/svg" viewBox="0 0 32 32"><path fill="#0097a7" d="M16 10v2h6c-2 0-3-2-6-2Z"/><path fill="#0097a7" d="M26 4h-2a4 4 0 0 0-4 4h4a1 1 0 0 1 2 0v4H16v-2h-5.317A2.683 2.683 0 0 0 8 12.683v2.634A2.683 2.683 0 0 0 10.683 18H16v2h-5.98A4.022 4.022 0 0 1 6 16v-2c-2 0-4 4-4 8 0 5 1 6 2 6h4v-4h4v4h4v-4h4v4h4v-6a2 2 0 0 0 2-2v-2a4 4 0 0 0 4-4V8a4 4 0 0 0-4-4Zm-4 12h-2a2 2 0 0 1-2-2h6a2 2 0 0 1-2 2Z"/></svg>

<svg xmlns="http://www.w3.org/2000/svg" viewBox="0 0 32 32">
  <path d="M16,10v2h6C20,12,19,10,16,10Z" style="fill: #0097a7"/>
  <path d="M26,4H24a4,4,0,0,0-4,4h4a1,1,0,0,1,2,0v4H16V10H10.68329A2.68329,2.68329,0,0,0,8,12.68329v2.63342A2.68329,2.68329,0,0,0,10.68329,18H16v2H10.02A4.02249,4.02249,0,0,1,6,16V14c-2,0-4,4-4,8,0,5,1,6,2,6H8V24h4v4h4V24h4v4h4V22a2,2,0,0,0,2-2V18a4,4,0,0,0,4-4V8A4,4,0,0,0,26,4ZM22,16H20a2,2,0,0,1-2-2h6A2,2,0,0,1,22,16Z" style="fill: #0097a7"/>
</svg>
